X: 10741
T: The COQUETTE NEW MOULDED
O: From D'Urfey's "Pills to Purge Melancholy."
%R: air, march
B: W. Hamilton "Universal Tune-Book" Vol. 1 Glasgow 1844 p.74 #1
S: http://imslp.org/wiki/Hamilton's_Universal_Tune-Book_(Various)
Z: 2016 John Chambers <jc:trillian.mit.edu>
M: C|
L: 1/8
K: Em
% - - - - - - - - - - - - - - - - - - - - - - - - -
B2 |\
e4 B4 | G2FG E2c2 | B2g2 f3e | ^d3c B2B2 |\
e4 B4 | G2FG E2c2 | B2e2 (BA)(GF) | "^Fin."E6 :|\
d2 |\
g4 d4 | B3c d2A2 | B2(cB) A2G2 | A3B A2d2 |
g4 d4 | B3c d2A2 | B2(cB) A3G | G6 |]\
B2 |\
c2B2 A2B2 | c4 B4 | g2(fg) (ag)(fe) | ^d6 B2 |\
c2B2 A2B2 | ^c2(e^d) e3f | g2(fe) e3^d | "^D.C."e6 |]
% - - - - - - - - - - - - - - - - - - - - - - - - -

%%sep 1 1 500
%%sep 1 1 500

